;FLAVOR:Marlin
;TIME:2000
;Filament used: 1.68695m
;Layer height: 0.2
;MINX:94.174
;MINY:106.7
;MINZ:0.2
;MAXX:141.664
;MAXY:129.455
;MAXZ:26
;TARGET_MACHINE.NAME:Creality Ender-3
;Generated with Cura_SteamEngine 5.8.0
M140 S50
M105
M190 S50
M104 S200
M105
M109 S200
M82 ;absolute extrusion mode
; Ender 3 Custom Start G-code
G92 E0 ; Reset Extruder
G28 ; Home all axes
G1 Z2.0 F3000 ; Move Z Axis up little to prevent scratching of Heat Bed
G1 X0.1 Y20 Z0.3 F5000.0 ; Move to start position
G1 X0.1 Y200.0 Z0.3 F1500.0 E15 ; Draw the first line
G1 X0.4 Y200.0 Z0.3 F5000.0 ; Move to side a little
G1 X0.4 Y20 Z0.3 F1500.0 E30 ; Draw the second line
G92 E0 ; Reset Extruder
G1 Z2.0 F3000 ; Move Z Axis up little to prevent scratching of Heat Bed
G1 X5 Y20 Z0.3 F5000.0 ; Move over to prevent blob squish
G92 E0
G92 E0
G1 F2700 E-5
;LAYER_COUNT:130
;LAYER:0
M107
;MESH:controlaire.STL
G0 F6000 X117.5 Y127.9 Z0.2
;TYPE:WALL-INNER
G1 F2700 E0
G1 F6000 X140.023 Y127.9 E0.74912
G1 X140.227 Y127.816 E0.75646
G1 X140.317 Y127.726 E0.76069
G1 X140.4 Y127.535 E0.76762
G1 X140.4 Y107.1 E1.44729
G1 X94.6 Y107.1 E2.9706
G1 X94.6 Y127.575 E3.6516
G1 X94.77 Y127.817 E3.66144
G1 X94.961 Y127.9 E3.66837
G1 X117.5 Y127.9 E4.41802
G0 X117.5 Y128.3
;TYPE:WALL-OUTER
G1 X140.157 Y128.3 E5.17159
G1 X140.465 Y128.144 E5.18307
G1 X140.644 Y127.964 E5.19152
G1 X140.8 Y127.661 E5.20285
G1 X140.8 Y106.7 E5.90002
G1 X94.2 Y106.7 E7.44994
G1 X94.2 Y127.669 E8.14737
G1 X94.352 Y127.964 E8.15841
G1 X94.532 Y128.144 E8.16688
G1 X94.835 Y128.3 E8.17821
G1 X117.5 Y128.3 E8.93205
G0 X117.5 Y127.54
;TYPE:SKIN
G1 X95.02 Y127.54 E9.67974
G1 X94.96 Y127.477 E9.68263
G1 X94.96 Y107.46 E10.3484
G1 X140.04 Y107.46 E11.84777
G1 X140.04 Y127.46 E12.51297
G1 X139.964 Y127.54 E12.51664
G1 X117.5 Y127.54 E13.2638
G0 X117.5 Y127.8
G0 X94.977 Y127.739
G0 X95.662 Y127.34
G1 X95.16 Y126.838 E13.28741
G0 X95.16 Y126.272
G1 X96.227 Y127.34 E13.33762
G0 X96.793 Y127.34
G1 X95.16 Y125.707 E13.41443
G0 X95.16 Y125.141
G1 X97.359 Y127.34 E13.51787
G0 X97.924 Y127.34
G1 X95.16 Y124.575 E13.6479
G0 X95.16 Y124.01
G1 X98.49 Y127.34 E13.80453
G0 X99.056 Y127.34
G1 X95.16 Y123.444 E13.98779
G0 X95.16 Y122.878
G1 X99.621 Y127.34 E14.19764
G0 X100.187 Y127.34
G1 X95.16 Y122.313 E14.4341
G0 X95.16 Y121.747
G1 X100.753 Y127.34 E14.69718
G0 X101.319 Y127.34
G1 X95.16 Y121.181 E14.98688
G0 X95.16 Y120.615
G1 X101.884 Y127.34 E15.30318
G0 X102.45 Y127.34
G1 X95.16 Y120.05 E15.64608
G0 X95.16 Y119.484
G1 X103.016 Y127.34 E16.0156
G0 X103.581 Y127.34
G1 X95.16 Y118.918 E16.41172
G0 X95.16 Y118.353
G1 X104.147 Y127.34 E16.83444
G0 X104.713 Y127.34
G1 X95.16 Y117.787 E17.28378
G0 X95.16 Y117.221
G1 X105.278 Y127.34 E17.75973
G0 X105.844 Y127.34
G1 X95.16 Y116.656 E18.26227
G0 X95.16 Y116.09
G1 X106.41 Y127.34 E18.79144
G0 X106.975 Y127.34
G1 X95.16 Y115.524 E19.3472
G0 X95.16 Y114.959
G1 X107.541 Y127.34 E19.92957
G0 X108.107 Y127.34
G1 X95.16 Y114.393 E20.53855
G0 X95.16 Y113.827
G1 X108.672 Y127.34 E21.17414
G0 X109.238 Y127.34
G1 X95.16 Y113.262 E21.83632
G0 X95.16 Y112.696
G1 X109.804 Y127.34 E22.52513
G0 X110.369 Y127.34
G1 X95.16 Y112.13 E23.24054
G0 X95.16 Y111.564
G1 X110.935 Y127.34 E23.98257
G0 X111.501 Y127.34
G1 X95.16 Y110.999 E24.7512
G0 X95.16 Y110.433
G1 X112.067 Y127.34 E25.54646
G0 X112.632 Y127.34
G1 X95.16 Y109.867 E26.36831
G0 X95.16 Y109.302
G1 X113.198 Y127.34 E27.21676
G0 X113.764 Y127.34
G1 X95.16 Y108.736 E28.09184
G0 X95.16 Y108.17
G1 X114.329 Y127.34 E28.99351
G0 X114.895 Y127.34
G1 X95.215 Y107.66 E29.9192
G0 X95.78 Y107.66
G1 X115.461 Y127.34 E30.84491
G0 X116.026 Y127.34
G1 X96.346 Y107.66 E31.7706
G0 X96.912 Y107.66
G1 X116.592 Y127.34 E32.69628
G0 X117.158 Y127.34
G1 X97.477 Y107.66 E33.62199
G0 X98.043 Y107.66
G1 X117.723 Y127.34 E34.54768
G0 X118.289 Y127.34
G1 X98.609 Y107.66 E35.47337
G0 X99.175 Y107.66
G1 X118.855 Y127.34 E36.39905
G0 X119.42 Y127.34
G1 X99.74 Y107.66 E37.32474
G0 X100.306 Y107.66
G1 X119.986 Y127.34 E38.25043
G0 X120.552 Y127.34
G1 X100.872 Y107.66 E39.17611
G0 X101.437 Y107.66
G1 X121.117 Y127.34 E40.1018
G0 X121.683 Y127.34
G1 X102.003 Y107.66 E41.02749
G0 X102.569 Y107.66
G1 X122.249 Y127.34 E41.95317
G0 X122.815 Y127.34
G1 X103.134 Y107.66 E42.87889
G0 X103.7 Y107.66
G1 X123.38 Y127.34 E43.80457
G0 X123.946 Y127.34
G1 X104.266 Y107.66 E44.73026
G0 X104.831 Y107.66
G1 X124.512 Y127.34 E45.65597
G0 X125.077 Y127.34
G1 X105.397 Y107.66 E46.58166
G0 X105.963 Y107.66
G1 X125.643 Y127.34 E47.50734
G0 X126.209 Y127.34
G1 X106.528 Y107.66 E48.43305
G0 X107.094 Y107.66
G1 X126.774 Y127.34 E49.35874
G0 X127.34 Y127.34
G1 X107.66 Y107.66 E50.28443
G0 X108.226 Y107.66
G1 X127.906 Y127.34 E51.21011
G0 X128.471 Y127.34
G1 X108.791 Y107.66 E52.1358
G0 X109.357 Y107.66
G1 X129.037 Y127.34 E53.06149
G0 X129.603 Y127.34
G1 X109.923 Y107.66 E53.98717
G0 X110.488 Y107.66
G1 X130.168 Y127.34 E54.91286
G0 X130.734 Y127.34
G1 X111.054 Y107.66 E55.83855
G0 X111.62 Y107.66
G1 X131.3 Y127.34 E56.76424
G0 X131.866 Y127.34
G1 X112.185 Y107.66 E57.68995
G0 X112.751 Y107.66
G1 X132.431 Y127.34 E58.61563
G0 X132.997 Y127.34
G1 X113.317 Y107.66 E59.54132
G0 X113.882 Y107.66
G1 X133.563 Y127.34 E60.46703
G0 X134.128 Y127.34
G1 X114.448 Y107.66 E61.39272
G0 X115.014 Y107.66
G1 X134.694 Y127.34 E62.3184
G0 X135.26 Y127.34
G1 X115.579 Y107.66 E63.24411
G0 X116.145 Y107.66
G1 X135.825 Y127.34 E64.1698
G0 X136.391 Y127.34
G1 X116.711 Y107.66 E65.09549
G0 X117.276 Y107.66
G1 X136.957 Y127.34 E66.0212
G0 X137.522 Y127.34
G1 X117.842 Y107.66 E66.94688
G0 X118.408 Y107.66
G1 X138.088 Y127.34 E67.87257
G0 X138.654 Y127.34
G1 X118.974 Y107.66 E68.79826
G0 X119.539 Y107.66
G1 X139.219 Y127.34 E69.72395
G0 X139.785 Y127.34
G1 X120.105 Y107.66 E70.64963
G0 X120.671 Y107.66
G1 X139.84 Y126.83 E71.55131
G0 X139.84 Y126.264
G1 X121.236 Y107.66 E72.42638
G0 X121.802 Y107.66
G1 X139.84 Y125.698 E73.27483
G0 X139.84 Y125.132
G1 X122.368 Y107.66 E74.09666
G0 X122.933 Y107.66
G1 X139.84 Y124.567 E74.89192
G0 X139.84 Y124.001
G1 X123.499 Y107.66 E75.66055
G0 X124.065 Y107.66
G1 X139.84 Y123.435 E76.40255
G0 X139.84 Y122.87
G1 X124.63 Y107.66 E77.11799
G0 X125.196 Y107.66
G1 X139.84 Y122.304 E77.8068
G0 X139.84 Y121.738
G1 X125.762 Y107.66 E78.46898
G0 X126.327 Y107.66
G1 X139.84 Y121.173 E79.10459
G0 X139.84 Y120.607
G1 X126.893 Y107.66 E79.71358
G0 X127.459 Y107.66
G1 X139.84 Y120.041 E80.29594
G0 X139.84 Y119.476
G1 X128.025 Y107.66 E80.85171
G0 X128.59 Y107.66
G1 X139.84 Y118.91 E81.38087
G0 X139.84 Y118.344
G1 X129.156 Y107.66 E81.88342
G0 X129.722 Y107.66
G1 X139.84 Y117.779 E82.35936
G0 X139.84 Y117.213
G1 X130.287 Y107.66 E82.8087
G0 X130.853 Y107.66
G1 X139.84 Y116.647 E83.23142
G0 X139.84 Y116.081
G1 X131.419 Y107.66 E83.62752
G0 X131.984 Y107.66
G1 X139.84 Y115.516 E83.99704
G0 X139.84 Y114.95
G1 X132.55 Y107.66 E84.33994
G0 X133.116 Y107.66
G1 X139.84 Y114.384 E84.65622
G0 X139.84 Y113.819
G1 X133.681 Y107.66 E84.94592
G0 X134.247 Y107.66
G1 X139.84 Y113.253 E85.209
G0 X139.84 Y112.687
G1 X134.813 Y107.66 E85.44545
G0 X135.378 Y107.66
G1 X139.84 Y112.122 E85.65533
G0 X139.84 Y111.556
G1 X135.944 Y107.66 E85.83859
G0 X136.51 Y107.66
G1 X139.84 Y110.99 E85.99522
G0 X139.84 Y110.425
G1 X137.075 Y107.66 E86.12528
G0 X137.641 Y107.66
G1 X139.84 Y109.859 E86.22871
G0 X139.84 Y109.293
G1 X138.207 Y107.66 E86.30552
G0 X138.773 Y107.66
G1 X139.84 Y108.728 E86.35573
G0 X139.84 Y108.162
G1 X139.338 Y107.66 E86.37935
G1 F2700 E81.37935
;MESH:NONMESH
G0 F300 X139.338 Y107.66 Z0.4
G0 F6000 X139.338 Y107.2
G0 X140.228 Y107.272
G0 X140.238 Y127.522
G0 X140.062 Y127.714
G0 X117.5 Y127.9
;TIME_ELAPSED:56.368047
;LAYER:1
M106 S85
;TYPE:WALL-INNER
;MESH:controlaire.STL
G1 F2700 E86.37935
G1 F6000 X139.949 Y127.9 E87.126
G1 X140.118 Y127.871 E87.13171
G1 X140.317 Y127.726 E87.1399
G1 X140.4 Y127.535 E87.14682
G1 X140.4 Y107.1 E87.82649
G1 X94.6 Y107.1 E89.34981
G1 X94.6 Y127.541 E90.02968
G1 X94.682 Y127.729 E90.0365
G1 X94.77 Y127.817 E90.04064
G1 X94.961 Y127.9 E90.04757
G1 X117.5 Y127.9 E90.79722
G0 X117.5 Y128.3
;TYPE:WALL-OUTER
G1 X139.983 Y128.3 E91.545
G1 X140.244 Y128.255 E91.55381
G1 X140.465 Y128.144 E91.56204
G1 X140.644 Y127.964 E91.57048
G1 X140.8 Y127.661 E91.58182
G1 X140.8 Y106.7 E92.27898
G1 X94.2 Y106.7 E93.8289
G1 X94.2 Y127.669 E94.52634
G1 X94.356 Y127.968 E94.53755
G1 X94.532 Y128.144 E94.54583
G1 X94.835 Y128.3 E94.55717
G1 X117.5 Y128.3 E95.31101
G0 X117.5 Y127.54
;TYPE:SKIN
G1 X95.021 Y127.54 E96.05866
G1 X94.96 Y127.472 E96.0617
G1 X94.96 Y107.46 E96.7273
G1 X140.04 Y107.46 E98.22667
G1 X140.04 Y127.472 E98.89227
G1 X139.97 Y127.54 E98.89552
G1 X117.5 Y127.54 E99.64287
G0 X117.5 Y127.8
G0 X140.038 Y127.738
G0 X139.84 Y127.163
G1 X139.663 Y127.34 E99.6512
G0 X139.098 Y127.34
G1 X139.84 Y126.598 E99.6861
G0 X139.84 Y126.032
G1 X138.532 Y127.34 E99.74762
G0 X137.966 Y127.34
G1 X139.84 Y125.466 E99.83577
G0 X139.84 Y124.901
G1 X137.401 Y127.34 E99.95049
G0 X136.835 Y127.34
G1 X139.84 Y124.335 E100.09184
G0 X139.84 Y123.769
G1 X136.269 Y127.34 E100.25981
G0 X135.704 Y127.34
G1 X139.84 Y123.203 E100.45438
G0 X139.84 Y122.638
G1 X135.138 Y127.34 E100.67555
G0 X134.572 Y127.34
G1 X139.84 Y122.072 E100.92334
G0 X139.84 Y121.506
G1 X134.007 Y127.34 E101.19773
G0 X133.441 Y127.34
G1 X139.84 Y120.941 E101.49871
G0 X139.84 Y120.375
G1 X132.875 Y127.34 E101.82633
G0 X132.31 Y127.34
G1 X139.84 Y119.809 E102.18054
G0 X139.84 Y119.244
G1 X131.744 Y127.34 E102.56135
G0 X131.178 Y127.34
G1 X139.84 Y118.678 E102.96878
G0 X139.84 Y118.112
G1 X130.613 Y127.34 E103.40282
G0 X130.047 Y127.34
G1 X139.84 Y117.547 E103.86345
G0 X139.84 Y116.981
G1 X129.481 Y127.34 E104.35071
G0 X128.915 Y127.34
G1 X139.84 Y116.415 E104.86458
G0 X139.84 Y115.85
G1 X128.35 Y127.34 E105.40504
G0 X127.784 Y127.34
G1 X139.84 Y115.284 E105.97212
G0 X139.84 Y114.718
G1 X127.218 Y127.34 E106.56582
G0 X126.653 Y127.34
G1 X139.84 Y114.152 E107.18612
G0 X139.84 Y113.587
G1 X126.087 Y127.34 E107.83301
G0 X125.521 Y127.34
G1 X139.84 Y113.021 E108.50654
G0 X139.84 Y112.455
G1 X124.956 Y127.34 E109.20666
G0 X124.39 Y127.34
G1 X139.84 Y111.89 E109.93338
G0 X139.84 Y111.324
G1 X123.824 Y127.34 E110.68672
G0 X123.259 Y127.34
G1 X139.84 Y110.758 E111.46666
G0 X139.84 Y110.193
G1 X122.693 Y127.34 E112.27321
G0 X122.127 Y127.34
G1 X139.84 Y109.627 E113.10637
G0 X139.84 Y109.061
G1 X121.562 Y127.34 E113.96614
G0 X120.996 Y127.34
G1 X139.84 Y108.496 E114.8525
G0 X139.84 Y107.93
G1 X120.43 Y127.34 E115.76549
G0 X119.864 Y127.34
G1 X139.545 Y107.66 E116.6912
G0 X138.979 Y107.66
G1 X119.299 Y127.34 E117.61688
G0 X118.733 Y127.34
G1 X138.413 Y107.66 E118.54257
G0 X137.848 Y107.66
G1 X118.167 Y127.34 E119.46828
G0 X117.602 Y127.34
G1 X137.282 Y107.66 E120.39397
G0 X136.716 Y107.66
G1 X117.036 Y127.34 E121.31966
G0 X116.47 Y127.34
G1 X136.151 Y107.66 E122.24537
G0 X135.585 Y107.66
G1 X115.905 Y127.34 E123.17105
G0 X115.339 Y127.34
G1 X135.019 Y107.66 E124.09674
G0 X134.454 Y107.66
G1 X114.773 Y127.34 E125.02245
G0 X114.208 Y127.34
G1 X133.888 Y107.66 E125.94814
G0 X133.322 Y107.66
G1 X113.642 Y127.34 E126.87382
G0 X113.076 Y127.34
G1 X132.756 Y107.66 E127.79951
G0 X132.191 Y107.66
G1 X112.511 Y127.34 E128.7252
G0 X111.945 Y127.34
G1 X131.625 Y107.66 E129.65088
G0 X131.059 Y107.66
G1 X111.379 Y127.34 E130.57657
G0 X110.814 Y127.34
G1 X130.494 Y107.66 E131.50226
G0 X129.928 Y107.66
G1 X110.248 Y127.34 E132.42795
G0 X109.682 Y127.34
G1 X129.362 Y107.66 E133.35363
G0 X128.797 Y107.66
G1 X109.116 Y127.34 E134.27934
G0 X108.551 Y127.34
G1 X128.231 Y107.66 E135.20503
G0 X127.665 Y107.66
G1 X107.985 Y127.34 E136.13072
G0 X107.419 Y127.34
G1 X127.1 Y107.66 E137.05643
G0 X126.534 Y107.66
G1 X106.854 Y127.34 E137.98211
G0 X106.288 Y127.34
G1 X125.968 Y107.66 E138.9078
G0 X125.403 Y107.66
G1 X105.722 Y127.34 E139.83351
G0 X105.157 Y127.34
G1 X124.837 Y107.66 E140.7592
G0 X124.271 Y107.66
G1 X104.591 Y127.34 E141.68488
G0 X104.025 Y127.34
G1 X123.706 Y107.66 E142.61059
G0 X123.14 Y107.66
G1 X103.46 Y127.34 E143.53628
G0 X102.894 Y127.34
G1 X122.574 Y107.66 E144.46197
G0 X122.008 Y107.66
G1 X102.328 Y127.34 E145.38766
G0 X101.763 Y127.34
G1 X121.443 Y107.66 E146.31334
G0 X120.877 Y107.66
G1 X101.197 Y127.34 E147.23903
G0 X100.631 Y127.34
G1 X120.311 Y107.66 E148.16472
G0 X119.746 Y107.66
G1 X100.066 Y127.34 E149.0904
G0 X99.5 Y127.34
G1 X119.18 Y107.66 E150.01609
G0 X118.614 Y107.66
G1 X98.934 Y127.34 E150.94178
G0 X98.368 Y127.34
G1 X118.049 Y107.66 E151.86749
G0 X117.483 Y107.66
G1 X97.803 Y127.34 E152.79317
G0 X97.237 Y127.34
G1 X116.917 Y107.66 E153.71886
G0 X116.352 Y107.66
G1 X96.671 Y127.34 E154.64457
G0 X96.106 Y127.34
G1 X115.786 Y107.66 E155.57026
G0 X115.22 Y107.66
G1 X95.54 Y127.34 E156.49594
G0 X95.16 Y127.155
G1 X114.655 Y107.66 E157.41293
G0 X114.089 Y107.66
G1 X95.16 Y126.589 E158.30329
G0 X95.16 Y126.023
G1 X113.523 Y107.66 E159.16703
G0 X112.957 Y107.66
G1 X95.16 Y125.458 E160.00417
G0 X95.16 Y124.892
G1 X112.392 Y107.66 E160.81471
G0 X111.826 Y107.66
G1 X95.16 Y124.326 E161.59863
G0 X95.16 Y123.761
G1 X111.26 Y107.66 E162.35595
G0 X110.695 Y107.66
G1 X95.16 Y123.195 E163.08667
G0 X95.16 Y122.629
G1 X110.129 Y107.66 E163.79076
G0 X109.563 Y107.66
G1 X95.16 Y122.064 E164.46826
G0 X95.16 Y121.498
G1 X108.998 Y107.66 E165.11916
G0 X108.432 Y107.66
G1 X95.16 Y120.932 E165.74343
G0 X95.16 Y120.367
G1 X107.866 Y107.66 E166.3411
G0 X107.301 Y107.66
G1 X95.16 Y119.801 E166.91218
G0 X95.16 Y119.235
G1 X106.735 Y107.66 E167.45663
G0 X106.169 Y107.66
G1 X95.16 Y118.669 E167.97446
G0 X95.16 Y118.104
G1 X105.604 Y107.66 E168.46572
G0 X105.038 Y107.66
G1 X95.16 Y117.538 E168.93035
G0 X95.16 Y116.972
G1 X104.472 Y107.66 E169.36835
G0 X103.907 Y107.66
G1 X95.16 Y116.407 E169.77979
G0 X95.16 Y115.841
G1 X103.341 Y107.66 E170.1646
G0 X102.775 Y107.66
G1 X95.16 Y115.275 E170.52278
G0 X95.16 Y114.71
G1 X102.209 Y107.66 E170.85437
G0 X101.644 Y107.66
G1 X95.16 Y114.144 E171.15936
G0 X95.16 Y113.578
G1 X101.078 Y107.66 E171.43772
G0 X100.512 Y107.66
G1 X95.16 Y113.013 E171.68949
G0 X95.16 Y112.447
G1 X99.947 Y107.66 E171.91465
G0 X99.381 Y107.66
G1 X95.16 Y111.881 E172.11319
G0 X95.16 Y111.316
G1 X98.815 Y107.66 E172.28514
G0 X98.25 Y107.66
G1 X95.16 Y110.75 E172.43048
G0 X95.16 Y110.184
G1 X97.684 Y107.66 E172.5492
G0 X97.118 Y107.66
G1 X95.16 Y109.619 E172.64133
G0 X95.16 Y109.053
G1 X96.553 Y107.66 E172.70685
G0 X95.987 Y107.66
G1 X95.16 Y108.487 E172.74575
G0 X95.16 Y107.921
G1 X95.421 Y107.66 E172.75802
G1 F2700 E167.75802
;MESH:NONMESH
G0 F300 X95.421 Y107.66 Z0.6
G0 F6000 X95.421 Y107.2
G0 X94.772 Y107.272
G0 X94.764 Y127.538
G0 X117.5 Y127.899
;TIME_ELAPSED:108.506597
;LAYER:2
M106 S170
;TYPE:WALL-INNER
;MESH:controlaire.STL
G1 F2700 E172.75802
G1 F6000 X140.021 Y127.9 E173.50708
G1 X140.172 Y127.85 E173.51237
G1 X140.347 Y127.679 E173.5205
G1 X140.399 Y127.521 E173.52604
G1 X140.4 Y107.1 E174.20524
G1 X94.6 Y107.1 E175.72856
G1 X94.6 Y127.519 E176.40769
G1 X94.649 Y127.679 E176.41326
G1 X94.818 Y127.848 E176.42121
G1 X94.979 Y127.899 E176.42683
G1 X117.5 Y127.899 E177.17588
G0 X117.5 Y128.3
;TYPE:WALL-OUTER
G1 X140.084 Y128.3 E177.92702
G1 X140.356 Y128.211 E177.93654
G1 X140.564 Y128.06 E177.94509
G1 X140.707 Y127.863 E177.95319
G1 X140.799 Y127.584 E177.96296
G1 X140.8 Y106.7 E178.65756
G1 X94.2 Y106.7 E180.20749
G1 X94.2 Y127.578 E180.90189
G1 X94.286 Y127.861 E180.91173
G1 X94.435 Y128.064 E180.9201
G1 X94.636 Y128.21 E180.92837
G1 X94.919 Y128.299 E180.93823
G1 X117.5 Y128.3 E181.68928
G0 X117.5 Y127.535
;TYPE:SKIN
G1 X95.013 Y127.53 E182.4372
G1 X94.96 Y127.441 E182.44065
G1 X94.96 Y107.46 E183.10522
G1 X140.039 Y107.461 E184.60455
G1 X140.03 Y127.482 E185.27045
G1 X139.941 Y127.54 E185.27399
G1 X117.5 Y127.535 E186.02038
G0 X117.498 Y127.799
G0 X95.655 Y127.799
G0 X95.657 Y127.336
G1 X95.16 Y126.838 E186.04378
G0 X95.16 Y126.272
G1 X96.223 Y127.336 E186.0938
G0 X96.789 Y127.336
G1 X95.16 Y125.707 E186.17043
G0 X95.16 Y125.141
G1 X97.354 Y127.336 E186.27365
G0 X97.92 Y127.336
G1 X95.16 Y124.575 E186.40349
G0 X95.16 Y124.01
G1 X98.486 Y127.336 E186.55994
G0 X99.052 Y127.336
G1 X95.16 Y123.444 E186.74301
G0 X95.16 Y122.878
